X:2
T:Embraceable You
C:George Gershwin
L:1/4
M:C
I:linebreak $
K:Eb
"Eb" z C D E |"Ebo" z2 (3C D E |"Fm" F B, B, B, |"Bb7" z4 |$"Fm" z F G A |"Fø" z F"Bb7" G A |
"Eb" B E"Eb6" E E Ox/||"Dm" z4 "G7" x4|$"Cm" G E"Cm/Bb" F E |"Aø" G E"D7" F E |
"Gm" G D"Gm/F" D D |"Eø" z4 "Eb7" x4|$"Dm" F D"G7" E D |"Cm" E F"F7" G =A |"Bb7" B B, B, B, |
"Fm" z4"Bb7" "_D.C. al Coda" x4 ||$Ox/"Bbm" z2"Eb7" z2 |"Ab" z B"Fm" A G |"Dø" A G"G7" F G |
"Cm" z E/E/"Cm/Bb" E/E/E/E/ |$"Aø" E/E/ G-"Ab" G2 |"Gm" z G"Cm" A B |"Fø" =B E"Bb7" D2 |
"Eb6" E4 | z4 |]

